X: 1
T: Barry Priddey
C:\251 George Meikle
B: George Meikle "Originally Mine" p.18
R: strathspey
Z: 2010 John Chambers <jc:trillian.mit.edu>
M: 4/4
L: 1/8
K: D
(3ABc |:\
"D"d2 c>d "F#/D7"A>F D>F | "G"G>F G>B "A7"A2 A>G |\
"D"F>G A>F "Bm"d>A F>D | "Em"E>F G>F "A7"E2 (3ABc |
"D"d2 c>d "F#/D7"A>F D>F | "G"G>F G>A "Fdim"B2 [B2^G2=F2] |\
"D"A>d c>B "Bm"A>F D>F |1 "Em"E>G "A7"F>E "D"D2 (3ABc :|2 "Em"E>G "A7"F>E "D"D<D D2 ||
"G"G>D G>A "Fdim"B2 B2 | "D"A>B A>F "Bm"D2 F2 |\
"Em"E>_E =E>F "A7"G>F E>G | "D"F>E F>G "F#/D7"A2 A>D |
"G"G>D G>A "A7"B2 A>G | "D"F>E F>G "B7"A2 A2 |\
"E7"^G>F G>A "G#/E7"B<E c>B | "A"A4 "C#/A7"A2 (3ABc |
"D"d2 c>d "F#/D7"A>F D>F | "G"G>F G>B "A7"A2 A>G |\
"D"F>G A>F "Bm"d>A F>D | "Em"E>F G>F "A7"E2 (3ABc |
"D"d2 c>d "F#/D7"A>F D>F | "G"G>F G>B "Fdim"B2 [B2^G2=F2] |\
"D"A>d c>B "Bm"A>F D>F | "Em"E>G "A7"F>E "D"D<D D2 |]
%%begintext align
Composed for the dance "The Dancing Dominie" devised by Jean Attwood  and  dedicated  to  the  late
Barry Priddey.  Barry was a great help to the Lothian Scottish Dance Band when we made 3 recordings
for the RSCDS Sutton Coldfield Branch.  Barry devised many well known dances and was the person who
also  helped  get the Sutton Coldfield Dance Index off the ground.  The ongoing compilation of this
was passed to me when Barry died and it is my intention that  it  will  carry  on  the  great  work
created by Barry.
%%endtext

%%sep 1 1 500
%%sep 1 1 500

